src/asset/24px/user.svg

<svg width="24" height="24" viewBox="0 0 24 24" fill="none" xmlns="http://www.w3.org/2000/svg">
<path fill-rule="evenodd" clip-rule="evenodd" d="M7.98432 11.3103C7.60394 11.0252 7.29464 10.6215 7.08284 10.1772C7.02661 10.0595 6.97872 9.94251 6.93851 9.82701C6.70628 9.15997 6.82182 8.47586 7.16613 7.94674C7.15185 7.74817 7.14418 7.55028 7.14394 7.35489L7.14082 6.98626C7.13682 6.65113 7.13661 6.30454 7.16035 5.99218C7.18277 5.69727 7.23634 5.25655 7.43691 4.81334C7.67523 4.28669 8.07601 3.85227 8.6197 3.58126C8.86282 3.46008 9.10454 3.38737 9.31903 3.34239C9.47697 3.10088 9.75191 2.75752 10.1891 2.48897C10.7924 2.11837 11.4635 2.02522 12.0469 2.00518C12.0588 2.00477 12.0708 2.00446 12.0827 2.00427L12.3266 2.00027L12.3594 2C12.8735 2 13.6633 2.04303 14.4564 2.28032C15.2237 2.50989 16.3128 3.02099 16.924 4.18756C17.2375 4.78594 17.3012 5.51618 17.0293 6.19676C17.0099 6.24535 16.9904 6.29228 16.978 6.32198L16.9763 6.32594C16.9009 6.507 16.8696 6.59039 16.8482 6.6922C16.8294 6.78163 16.8115 6.92447 16.8402 7.14952C16.8725 7.39353 16.8693 7.64208 16.8545 7.85303C17.1194 8.24706 17.2551 8.75522 17.1566 9.37094C17.1237 9.57651 17.0688 9.78906 16.9887 10.0046C16.9083 10.2249 16.8151 10.411 16.7267 10.5626C16.5196 10.9175 16.2466 11.1563 16.0263 11.3081C15.7771 11.8928 15.4424 12.4996 15 12.9894V13.2065C16.0837 13.4241 17.1463 13.8028 18.0937 14.2902C19.2392 14.8795 20.3463 15.6953 21.0975 16.7185C21.8099 17.6888 21.7621 18.8932 21.1577 19.7738C20.6106 20.571 19.699 21 18.7776 20.9999L5.221 20.9991C4.29965 20.999 3.38966 20.57 2.84245 19.7757C2.23868 18.8993 2.18455 17.697 2.89275 16.7236C3.6448 15.6899 4.75612 14.8715 5.90431 14.2827C6.85336 13.7961 7.91672 13.4202 9.00004 13.2046V12.9699C8.56442 12.4812 8.23274 11.8864 7.98432 11.3103ZM14.348 10.1096L14.4266 9.89C14.4529 9.8166 14.5225 9.76762 14.6005 9.76762C14.7267 9.76762 14.9357 9.6636 14.9993 9.5546C15.0132 9.53069 15.0275 9.50475 15.0416 9.47677C15.066 9.42848 15.09 9.37413 15.1118 9.31365C15.1477 9.21823 15.1695 9.13122 15.1817 9.05499C15.2003 8.93887 15.0964 8.8514 14.9794 8.86325C14.8456 8.87681 14.7337 8.76293 14.7496 8.62938L14.8143 8.08473C14.8335 7.94838 14.8521 7.81646 14.861 7.69426C14.8685 7.59151 14.869 7.49564 14.8572 7.40977C14.8319 7.21413 14.8228 7.03447 14.8257 6.86925C14.8879 6.86465 14.9516 6.86321 15.0162 6.8649C14.9535 6.86301 14.8899 6.86443 14.8257 6.86925C14.8361 6.26272 15.0077 5.85081 15.1301 5.5569C15.1432 5.52539 15.1582 5.48953 15.172 5.45486C15.2167 5.3431 15.2082 5.22228 15.1524 5.11568C14.6474 4.15185 13.2037 4 12.3594 4L12.1155 4.004C11.2131 4.035 11.0734 4.28598 10.9123 4.57796C10.7791 4.81797 10.5565 5.21894 9.97117 5.26692C9.19551 5.33191 9.1246 5.62489 9.14072 6.9658L9.14394 7.34578C9.14394 7.64292 9.16728 7.9618 9.21187 8.28964C9.21214 8.29166 9.21242 8.29369 9.2127 8.29571L9.2761 8.75614C9.29502 8.89357 9.16825 9.00615 9.03402 8.97112C8.90408 8.93721 8.78316 9.04262 8.82732 9.16945C8.8435 9.21593 8.86355 9.26516 8.88825 9.31665C8.90025 9.34183 8.91256 9.36584 8.92505 9.38868C9.02813 9.57721 9.14388 9.68652 9.20963 9.72783C9.23064 9.74103 9.25508 9.7466 9.27958 9.75056C9.45071 9.77819 9.5917 9.89981 9.64413 10.065L9.6478 10.0766C9.72861 10.304 9.81615 10.5169 9.90864 10.7125C9.92262 10.7421 9.93672 10.7713 9.95093 10.8001C10.2103 11.3257 10.5054 11.7165 10.7987 11.9142C10.8121 11.9232 10.8264 11.9305 10.8413 11.9365C10.9372 11.9748 11 12.0677 11 12.1709V14C11 14.5523 10.5509 14.9955 10.0031 15.0657C8.30339 15.2835 6.5515 16.024 5.37432 16.9991C5.3702 17.0025 5.3661 17.0059 5.36199 17.0093C5.3141 17.0492 5.26717 17.0895 5.22124 17.1301C4.94464 17.3748 4.70446 17.6329 4.51003 17.9002C4.13853 18.4108 4.58966 18.999 5.22112 18.9991L18.7778 18.9999C19.4096 19 19.8593 18.4115 19.4854 17.9022C19.2916 17.6382 19.0527 17.3827 18.7779 17.1398C18.729 17.0967 18.679 17.0539 18.6279 17.0115C18.6233 17.0077 18.6186 17.0038 18.6139 16.9999C17.4368 16.0298 15.6906 15.2861 13.9969 15.0665C13.4492 14.9955 13 14.5523 13 14V12.2553C13 12.0996 13.0904 11.9581 13.2316 11.8925C13.2532 11.8825 13.2738 11.8708 13.2928 11.8566C13.5747 11.6452 13.8599 11.2372 14.1098 10.6963C14.1184 10.6778 14.1269 10.6591 14.1353 10.6403C14.2099 10.4747 14.2811 10.2972 14.348 10.1096Z" fill="currentColor"/>
</svg>

<svg width="24" height="24" fill="none" xmlns="http://www.w3.org/2000/svg"><path fill-rule="evenodd" clip-rule="evenodd" d="M7.984 11.31a3.068 3.068 0 01-.901-1.133 3.424 3.424 0 01-.144-.35 2.14 2.14 0 01.227-1.88 8.408 8.408 0 01-.022-.592l-.003-.369c-.004-.335-.004-.681.02-.994.022-.295.075-.735.276-1.179.238-.526.639-.96 1.183-1.232a2.9 2.9 0 01.699-.239c.158-.241.433-.584.87-.853.603-.37 1.274-.464 1.858-.484h.036L12.327 2h.032c.514 0 1.304.043 2.097.28.768.23 1.857.741 2.468 1.908a2.4 2.4 0 01.105 2.009l-.051.125-.002.004a1.963 1.963 0 00-.128.366 1.34 1.34 0 00-.008.458c.032.244.03.492.015.703.264.394.4.902.302 1.518a3.465 3.465 0 01-.43 1.192 2.35 2.35 0 01-.7.745c-.25.585-.585 1.192-1.027 1.681v.217c1.084.218 2.146.597 3.094 1.084 1.145.59 2.252 1.405 3.003 2.428.713.97.665 2.175.06 3.056C20.612 20.57 19.7 21 18.778 21H5.222c-.921-.001-1.831-.43-2.379-1.224a2.615 2.615 0 01.05-3.052c.753-1.034 1.864-1.853 3.012-2.441.95-.487 2.013-.863 3.096-1.078v-.235c-.436-.489-.767-1.084-1.016-1.66zm6.364-1.2l.079-.22a.185.185 0 01.174-.122c.126 0 .335-.104.398-.213a1.478 1.478 0 00.183-.5c.018-.116-.086-.204-.203-.192a.21.21 0 01-.23-.234l.065-.544c.02-.137.038-.269.047-.39a1.383 1.383 0 00-.004-.285 3.702 3.702 0 01-.031-.54c.01-.607.182-1.02.304-1.313l.042-.102a.401.401 0 00-.02-.34C14.647 4.153 13.204 4 12.36 4l-.243.004c-.903.031-1.043.282-1.204.574-.133.24-.356.64-.94.689-.776.065-.847.358-.831 1.699l.003.38a7.064 7.064 0 00.069.95l.063.46a.195.195 0 01-.242.215c-.13-.034-.25.072-.207.198a1.42 1.42 0 00.098.22.95.95 0 00.285.339.185.185 0 00.07.023.46.46 0 01.364.314l.004.012a6.883 6.883 0 00.303.723c.26.526.554.916.848 1.114a.23.23 0 00.042.023.252.252 0 01.159.234V14c0 .552-.45.995-.997 1.066-1.7.217-3.452.958-4.629 1.933l-.012.01c-.048.04-.095.08-.14.121a4.85 4.85 0 00-.712.77c-.371.51.08 1.099.711 1.1h13.557c.632 0 1.081-.588.707-1.098a4.901 4.901 0 00-.857-.89L18.614 17c-1.177-.97-2.923-1.714-4.617-1.934-.548-.07-.997-.514-.997-1.066v-1.745a.4.4 0 01.232-.363.34.34 0 00.06-.035c.283-.212.568-.62.818-1.16a7.106 7.106 0 00.238-.587z" fill="currentColor"/></svg>
